assets/svg/icon_search_follow.svg

<svg width="24" height="24" viewBox="0 0 24 24" fill="none" xmlns="http://www.w3.org/2000/svg">
<path d="M16.8343 12.2925L17.1892 11.8087L17.1892 11.8087L16.8343 12.2925ZM17.6 9.35308L17.185 9.78646C17.4171 10.0086 17.7829 10.0086 18.015 9.78646L17.6 9.35308ZM18.3657 12.2925L18.0108 11.8087L18.0108 11.8087L18.3657 12.2925ZM17.6 12.662L17.6 13.262H17.6L17.6 12.662ZM13 7.2C13 8.63594 11.8359 9.8 10.4 9.8V11C12.4987 11 14.2 9.29868 14.2 7.2H13ZM10.4 9.8C8.96406 9.8 7.8 8.63594 7.8 7.2H6.6C6.6 9.29868 8.30132 11 10.4 11V9.8ZM7.8 7.2C7.8 5.76406 8.96406 4.6 10.4 4.6V3.4C8.30132 3.4 6.6 5.10132 6.6 7.2H7.8ZM10.4 4.6C11.8359 4.6 13 5.76406 13 7.2H14.2C14.2 5.10132 12.4987 3.4 10.4 3.4V4.6ZM16.2 16.4C16.2 17.4462 16.1677 18.0352 15.6211 18.4803C15.3247 18.7217 14.8292 18.9573 13.981 19.129C13.1354 19.3002 11.9794 19.4 10.4 19.4V20.6C12.0206 20.6 13.2646 20.4984 14.219 20.3052C15.1708 20.1125 15.8753 19.8209 16.3789 19.4108C17.4323 18.553 17.4 17.342 17.4 16.4H16.2ZM10.4 19.4C8.82062 19.4 7.66459 19.3002 6.81903 19.129C5.97082 18.9573 5.4753 18.7217 5.17887 18.4803C4.63225 18.0352 4.6 17.4462 4.6 16.4H3.4C3.4 17.342 3.36775 18.553 4.42113 19.4108C4.9247 19.8209 5.62918 20.1125 6.58097 20.3052C7.53541 20.4984 8.77938 20.6 10.4 20.6V19.4ZM4.6 16.4C4.6 15.7189 5.0971 14.9801 6.16867 14.3774C7.22144 13.7852 8.71622 13.4 10.4 13.4V12.2C8.54916 12.2 6.84394 12.6207 5.58036 13.3315C4.33559 14.0317 3.4 15.0928 3.4 16.4H4.6ZM10.4 13.4C12.0838 13.4 13.5786 13.7852 14.6313 14.3774C15.7029 14.9801 16.2 15.7189 16.2 16.4H17.4C17.4 15.0928 16.4644 14.0317 15.2196 13.3315C13.9561 12.6207 12.2508 12.2 10.4 12.2V13.4ZM17.1892 11.8087C16.8549 11.5634 16.4865 11.257 16.2076 10.9345C15.913 10.5939 15.8 10.329 15.8 10.1574H14.6C14.6 10.7733 14.953 11.3183 15.2999 11.7195C15.6626 12.1388 16.1113 12.5062 16.4793 12.7762L17.1892 11.8087ZM15.8 10.1574C15.8 9.69654 16.0101 9.49602 16.1935 9.43171C16.3937 9.36152 16.7646 9.38389 17.185 9.78646L18.015 8.9197C17.3554 8.28823 16.5263 8.04346 15.7965 8.29928C15.05 8.56099 14.6 9.27964 14.6 10.1574H15.8ZM18.7207 12.7762C19.0887 12.5062 19.5374 12.1388 19.9001 11.7195C20.247 11.3183 20.6 10.7733 20.6 10.1574H19.4C19.4 10.3291 19.287 10.5939 18.9924 10.9345C18.7135 11.257 18.3451 11.5634 18.0108 11.8087L18.7207 12.7762ZM20.6 10.1574C20.6 9.27963 20.15 8.56098 19.4035 8.29928C18.6737 8.04346 17.8446 8.28823 17.185 8.9197L18.015 9.78646C18.4354 9.38389 18.8063 9.36152 19.0065 9.43171C19.1899 9.49602 19.4 9.69654 19.4 10.1574H20.6ZM16.4793 12.7762C16.7742 12.9926 17.1053 13.262 17.6 13.262L17.6 12.062C17.5805 12.062 17.5684 12.062 17.5249 12.039C17.4561 12.0027 17.3702 11.9415 17.1892 11.8087L16.4793 12.7762ZM18.0108 11.8087C17.8298 11.9415 17.7439 12.0027 17.6751 12.039C17.6316 12.062 17.6196 12.062 17.6 12.062L17.6 13.262C18.0947 13.262 18.4258 12.9926 18.7207 12.7762L18.0108 11.8087Z" fill="#0166FF"/>
</svg>

<svg xmlns="http://www.w3.org/2000/svg" width="24" height="24" fill="none"><path fill="#0166FF" d="m16.834 12.293.355-.484zm.766-2.94-.415.433a.6.6 0 0 0 .83 0zm.766 2.94-.355-.484zm-.766.369v.6zM13 7.2a2.6 2.6 0 0 1-2.6 2.6V11a3.8 3.8 0 0 0 3.8-3.8zm-2.6 2.6a2.6 2.6 0 0 1-2.6-2.6H6.6a3.8 3.8 0 0 0 3.8 3.8zM7.8 7.2a2.6 2.6 0 0 1 2.6-2.6V3.4a3.8 3.8 0 0 0-3.8 3.8zm2.6-2.6A2.6 2.6 0 0 1 13 7.2h1.2a3.8 3.8 0 0 0-3.8-3.8zm5.8 11.8c0 1.046-.032 1.635-.579 2.08-.296.242-.792.477-1.64.649-.846.171-2.002.271-3.581.271v1.2c1.62 0 2.865-.102 3.819-.295.952-.192 1.656-.484 2.16-.894 1.053-.858 1.021-2.069 1.021-3.011zm-5.8 3c-1.58 0-2.735-.1-3.581-.271-.848-.172-1.344-.407-1.64-.649-.547-.445-.579-1.034-.579-2.08H3.4c0 .942-.032 2.153 1.021 3.01.504.41 1.208.703 2.16.895.954.193 2.198.295 3.819.295zm-5.8-3c0-.681.497-1.42 1.569-2.023 1.052-.592 2.547-.977 4.231-.977v-1.2c-1.85 0-3.556.42-4.82 1.132-1.244.7-2.18 1.76-2.18 3.068zm5.8-3c1.684 0 3.179.385 4.231.977 1.072.603 1.569 1.342 1.569 2.023h1.2c0-1.307-.936-2.368-2.18-3.068-1.264-.711-2.97-1.132-4.82-1.132zm6.79-1.591a6 6 0 0 1-.982-.874c-.295-.341-.408-.606-.408-.778h-1.2c0 .616.353 1.161.7 1.563.363.419.811.786 1.18 1.056zm-1.39-1.652c0-.46.21-.661.393-.725.2-.07.572-.048.992.354l.83-.866c-.66-.632-1.489-.877-2.219-.62-.746.261-1.196.98-1.196 1.857zm2.92 2.62c.369-.27.817-.638 1.18-1.057.347-.402.7-.947.7-1.563h-1.2c0 .172-.113.437-.408.777a6 6 0 0 1-.981.875zm1.88-2.62c0-.877-.45-1.596-1.197-1.858-.73-.256-1.558-.01-2.218.62l.83.867c.42-.402.791-.424.991-.354.184.064.394.265.394.725zm-4.12 2.62c.294.216.625.485 1.12.485v-1.2c-.02 0-.032 0-.075-.023a3 3 0 0 1-.336-.23zm1.53-.968a3 3 0 0 1-.335.23c-.043.023-.055.023-.075.023v1.2c.495 0 .826-.27 1.12-.486z"/></svg>
